X: 1277
T: An Fathach Tireannach
R: jig
M: 6/8
K: Dmajor
A,DD DEG|FGF FED|A,DD DEG|FDB, A,3|
A,DD DEG|FGF GFE|FFF GFE|DED D2:|
AGF GFE|FAG FED|~A3 ~G3|FED E3|
AGF GFE|FAG FED|EEE GFE|DED D2:|

